!!!!SEGMENT: 050-1-ME-003.krn
!!!COM: F. Chopin
!!!OTL: Mazourka No. 3.
!!!OPS: Op. 50
!!!PTL: Trois Mazourkas
!!!PPR: Mechetti
!!!PPP: Vienna
!!!AFR: mazurka
!!!NIFC-rismID: 1001029904
!!!NIFC-shelfmark: PL-Wbfc 671/n
!!!OMD: Moderato.
**kern	**kern	**dynam
*part1	*part1	*part1
*staff2	*staff1	*
*clefF4	*clefG2	*
*k[f#c#g#d#]	*k[f#c#g#d#]	*
*c#:	*c#:	*
*M3/4	*M3/4	*
*>[A,A,B]	*>[A,A,B]	*
*>A	*>A	*
4r	([>4gg#/	>
=1	=1	=1
2.r	4gg#/]	]
.	8gg#/L	.
.	8bb	.
.	8aa	.
.	8gg#J	.
=2	=2	=2
*	*^	*
4r	8ff##X/L	2ryy	.
.	8dd#/J	.	.
4r	4.gg#	.	.
*clefG2	*	*	*
([<4g#	.	4b#X	.
!	!LO:N:acc=n#	!	!
.	8ffn#X	.	.
*	*v	*v	*
=3	=3	=3
4g#]	2.ee/ [2.cc#/	.
8g#L	.	.
8b	.	.
8a	.	.
8g#J	.	.
=4	=4	=4
*^	*^	*
8f##XL	4ryy	2.dd#/	4cc#]	.
8d#J	.	.	.	.
4.g#	4ryy	.	2b#X	.
.	4G#	.	.	.
8f#X	.	.	.	.
*v	*v	*	*	*
*	*v	*v	*
=5	=5	=5
4e\) 4c#\)	4cc#)	.
4r	(>8dd#/L	.
.	8ff#/	.
4r	8ee/	.
.	8dd#/J	.
=6	=6	=6
*	*^	*
4r	8cc#/L	2ryy	.
.	8a#XJ	.	.
4r	4.dd#	.	.
*clefF4	*	*	*
!diminuendolike accent:problem	!	!	!
(>[4d#^<	.	4f##X	.
.	8cc#	.	.
*	*v	*v	*
=7	=7	=7
4d#]	2.b [2.g#	.
8d#L	.	.
8f#	.	.
8e	.	.
8d#J	.	.
=8	=8	=8
*^	*^	*
8c#\L	4ryy	2.a#X	4g#]	.
8A#XJ	.	.	.	.
4.d#	4ryy	.	2f##X	.
.	(>4D#	.	.	.
8c#	.	.	.	.
!!LO:LB:g=original
=9	=9	=9	=9	=9
*ped	*	*	*	*
4B#X/)	4GG#'>\)	8b#'>L)	4f#	<
.	.	(8cc#	.	[
4r	2ryy	8dd#	2ryy	.
.	.	8ee	.	.
4r	.	8ff#	.	.
.	.	8gg#J	.	.
*v	*v	*	*	*
*	*v	*v	*
=10	=10	=10
!	!LO:TUP:a	!
4r	12aaL	.
.	12bb	.
.	12aaJ	.
4f# 4B#X 4G#	8ff#L	.
.	8ee	.
*Xped	*	*
4f# 4c# 4A	8dd#	.
.	8cc#J	.
=11	=11	=11
*ped	*	*
4f# 4d# 4G#	8b#XL	.
.	8cc#	.
4GG#'<	8dd#	.
.	8ee	.
4f#'> 4B#X'> 4G#'>	8ff#	.
.	8gg#J	.
*Xped	*	*
=12	=12	=12
!	!LO:TUP:a	!
4r	12aaL	.
.	12bb	.
.	12aaJ	.
(4f# 4B#X 4G#	8ff#L	.
.	8ee	.
4f# 4c# 4A	8dd#	.
.	8cc#J	.
=13	=13	=13
4f# 4B#X 4G#)	8dd#\L	.
*ped	*	*
.	8g#\J	.
4GG#'<	4.gg#	.
(4B# 4D#	.	.
.	8dd#	.
=14	=14	=14
4f# 4G#	8gg#L	.
.	8dd#J	.
4B#X 4D#)	4.gg#	.
4GG#'<	.	.
.	8g#\	.
=15	=15	=15
4GGG#'<	8dd#\L	.
.	8g#\J	.
4f# 4B#X 4G#	4.gg#	.
4r	.	.
*Xped	*	*
.	8g#\	.
=16	=16	=16
*ped	*	*
(>4CC#	8dd#L	.
.	8eeJ	.
*Xped	*	*
4e: 4G#: 4C#:)	4cc#)	.
!!LO:LB:g=original
=:|!	=:|!	=:|!
*>B	*>B	*
4r	4r	.
=17	=17	=17
*ped	*	*
4AA\ 4AAA\	4A</	f
4.e 4.A 4.E	4.cc#^< 4.a 4.c#	.
8e 8A 8E	(<8c#	.
=18	=18	=18
8eL 8A 8E	8cc#/L 8a/)	.
16r	16r	.
16eJk 16A 16E	(16cc#Jk 16a	.
4e 4A 4E	4c#)	.
!	!LO:S:s=1:note:problem:note-level slur	!
4e 4A 4E	(>4cc#^< 4a 4c#	.
=19	=19	=19
*	*^	*
4AA\ 4AAA\	8A<')	4ryy	.
.	16r	.	.
.	(16cc# 16a	.	.
4e 4A 4E	12cc#L	4a^<	.
.	12dd#	.	.
.	12cc#J	.	.
4r	8bL 8g#	4ryy	.
*Xped	*	*	*
.	8aJ 8f#	.	.
*	*v	*v	*
=20	=20	=20
*ped	*	*
4EE	8bL 8g#)	.
.	16r	.
.	(>16bJk 16g#	.
4B 4E	4g#'> 4e'>)	.
!	!LO:S:s=1:note:problem:note-level slur	!
4B 4E	(>4ee^< 4g# 4e	.
*Xped	*	*
=21	=21	=21
*ped	*	*
4FF#\ 4FFF#\	4A<'>)	.
4.c# 4.F# 4.C#	4.a^< 4.f# 4.A	.
8c# 8F# 8C#	(<8A	.
=22	=22	=22
8c#L 8F# 8C#	8aL 8f#)	.
16r	16r	.
16c#Jk 16F# 16C#	16aJk 16f#	.
4c# 4F# 4C#	4A	.
!	!LO:S:s=1:note:problem:note-level slur	!
4c# 4F# 4C#	(>4a^< 4f# 4A	.
=23	=23	=23
*	*^	*
4FF#\ 4FFF#\	8A<'>)	4ryy	.
.	16r	.	.
.	(>16a 16f#	.	.
4c# 4F# 4C#	12aL	4f#	.
.	12b	.	.
.	12aJ	.	.
4r	8g#L 8e	4ryy	.
*Xped	*	*	*
.	8f#J 8d#	.	.
*	*v	*v	*
=24	=24	=24
*ped	*	*
4CC#	8g#L 8e)	.
.	16r	.
.	(<16g#Jk 16e	.
4G# 4C#	4e'< 4c#'<)	.
*Xped	*	*
4C#\	>4cc#^< 4c#	.
!!LO:LB:g=original
=25	=25	=25
*	*^	*
*ped	*	*	*
8DD#L	(2b#X	2.f##X 2.c#	p>
(8D#	.	.	.
*Xped	*	*	*
8E#X	.	.	.
8F##X	.	.	.
8G#	4a#X	.	]
8A#XJ	.	.	.
*	*v	*v	*
=26	=26	=26
8B#XL	4d#)	.
8G#	.	.
8D#	4r	]
8e#XJ	.	.
4d#)	(>4b#X 4g#	.
=27	=27	=27
*	*^	*
*ped	*	*	*
(8DD#L	2dd# 2b#X	2.f##X 2.c#	>
8D#	.	.	.
8E#X	.	.	.
8F##X	.	.	.
*Xped	*	*	*
8G#	4cc# 4a#X	.	]
8A#XJ	.	.	.
*	*v	*v	*
=28	=28	=28
8B#XL	2b#X 2g# 2d#	.
8G#	.	.
8D#	.	.
8qqF##X/	.	.
8E#XJ	.	.
4D#)	4cc# 4g# 4e#X	>
=29	=29	=29
*ped	*	*
(8DD#L	2b#X 2f##X 2d#	.
8D#	.	.
8E#X	.	.
*Xped	*	*
*	*	*^
!	!	!	!LO:HP:b=2
8F##X	.	.	<
8G#	4a#X 4e#X 4c#	]	.
8A#XJ	.	.	.
=30	=30	=30	=30
*	*^	*	*
8B#XL	4d#)	4ryy	.	.
8G#	.	.	.	.
8D#	4r	4r	.	.
8d#J	.	.	.	.
[4g#)	[4dd#	(4b#X	.	[
*	*	*	*v	*v
=31	=31	=31	=31
!	!	!	!LO:HP:b=2
(8g#L]	4dd#]	4cc#)	>
8f##X	.	.	.
8D#	4r	2ryy	.
8e#XJ	.	.	.
4d#^>	4f##X\ 4dd#\	.	]
*	*v	*v	*
=32	=32	=32
8c#L	4dd# 4g#	.
8B#X	.	.
8GG#	4r	.
8A#XJ)	.	.
[4G#^>	>4dd# 4b#X 4d#	.
!!LO:LB:g=original
=33	=33	=33
4G#]	(>2.ee 2.cc# 2.e	.
(8G#L	.	.
8B	.	.
8A	.	.
8G#J	.	.
=34	=34	=34
*^	*^	*
*	*	*	*^	*
8F##XL/	4ryy	8dd#L	4a#X	2.d#\	.
8D#J/	.	8cc#J	.	.	.
4.G#	4ryy	4b#X	[2g#	.	.
.	4GG#	4dd#	.	.	.
8F#X)	.	.	.	.	.
=35	=35	=35	=35	=35	=35
4E	[2.GG#	8dd#L	4g#]	4c#\	.
.	.	8g#J	.	.	.
4D#	.	4g#	[>2g#	8d#\L	.
.	.	.	.	8f#\	.
8C#L	.	8cc#L	.	8e\	.
8D#J	.	8b#XJ	.	8d#\J	.
*	*	*	*v	*v	*
=36	=36	=36	=36	=36
*	*^	*	*	*
8c#L	4E	2.GG#\]	8a#XL	4g#]	.
8A#XJ	.	.	8cc#J	.	.
4.d#	(>2D#	.	4a#	2f##X	.
.	.	.	4b#X	.	.
8c#	.	.	.	.	.
*	*v	*v	*	*	*
*	*	*v	*v	*
=37	=37	=37	=37
4B#X	4GG#)	4g#)	.
4r	2ryy	8g#\L	.
.	.	8bn\	.
4r	.	8a\	.
.	.	8g#\J	.
*v	*v	*	*
=38	=38	=38
*	*^	*
2.r	(2a#X 2cc#	8f##XL	.
.	.	8d#J	.
.	.	4.g#	.
.	4b#X 4dd#	.	.
.	.	8f#X	.
*clefG2	*	*	*
=39	=39	=39	=39
(>[>2.e\ [2.G#\	2.gg#	4cc#	.
.	.	8dd#L	.
.	.	8ff#	.
.	.	8ee	.
.	.	8dd#J	.
=40	=40	=40	=40
*^	*	*	*
4e]	2.G#]	2.aa#X 2.ff##X	8cc#L	.
.	.	.	8a#XJ	.
4d#	.	.	4.dd#	.
4a#X	.	.	.	.
.	.	.	8cc#	.
*v	*v	*	*	*
*	*v	*v	*
!!LO:LB:g=original
=41	=41	=41
.	8qb#X/	pp
*ped	*	*
[>2.d# [2.G#	8bb#XL	.
.	8aa#XJ	.
.	4gg#	.
.	4dd#	.
=42	=42	=42
2d#] 2G#])	8b#X\L	.
.	8g#\J	.
.	4dd#	.
4r	4gg#	.
=43	=43	=43
2.r	8bb#XL	.
.	8aa#XJ	.
.	4gg#	.
.	4dd#	.
=44	=44	=44
2.r	8b#X\L	.
.	8g#\J	.
.	4dd#	.
.	4gg#^<	.
*clefF4	*	*
=45	=45	=45
!	!LO:TX:i:t=m.v.	!
*ped	*	*
4BB	8dd#L	.
.	8cc#J	.
4d# 4F#	4b	.
*Xped	*	*
4e 4B 4G#	4g#\	.
=46	=46	=46
*ped	*	*
4BB	8f#L	.
.	8d#J	.
4B 4F#	4f#	.
*Xped	*	*
4d# 4B 4F#	4b/	.
=47	=47	=47
*ped	*	*
4BB	8dd#L	.
.	8cc#J	.
4d# 4F#	4b\	.
*Xped	*	*
4e 4B 4G#	4g#\	.
=48	=48	=48
*ped	*	*
4BB	8f#L	.
.	8d#J	.
4B 4F#	4f#	.
*Xped	*	*
4d# 4B 4F#	4b/	.
=49	=49	=49
*ped	*	*
4C#	8dd#L	.
.	8cc#J	.
4e#X 4B	4b\	.
*Xped	*	*
4e# 4B	4g#\	.
!!LO:PB:g=original
=50	=50	=50
*ped	*	*
4FF#	8f#L	.
.	8c#J	.
4A#X	4f#	.
*Xped	*	*
4A# 4C#	4a#X	.
=51	=51	=51
*ped	*	*
4CC#	8dd#L	.
.	8cc#J	.
4e#X 4B	4b	.
*Xped	*	*
4e# 4B	4g#	.
=52	=52	=52
*ped	*	*
4FF#	8f#L	.
.	8c#J	.
4en 4A#X 4F#	4f#	.
*Xped	*	*
4e 4F#	4a#X	.
=53	=53	=53
*ped	*	*
4BB	8dd#L	.
.	8cc#J	.
4d# 4F#	4b	.
*Xped	*	*
4e 4B 4G#	4g#	.
=54	=54	=54
*ped	*	*
4BB	8f#L	.
.	8d#J	.
4B 4F#	4f#	.
*Xped	*	*
4d# 4B 4F#	4b/	.
=55	=55	=55
*ped	*	*
4BB	8dd#L	.
.	8cc#J	.
4d# 4F#	4b	.
*Xped	*	*
4e 4B 4G#	4g#	.
=56	=56	=56
*ped	*	*
4BB	8f#L	.
.	8d#J	.
4B 4F#	4f#	.
*Xped	*	*
4d# 4F#	4b/	.
=57	=57	=57
*ped	*	*
4GG#	8dd#L	.
.	8cc#J	.
4B 4G# 4D#	4b	.
*Xped	*	*
4c# 4G# 4E	4g#	.
!!LO:LB:g=original
=58	=58	=58
*ped	*	*
4GG#	8d#L	.
.	8BJ	.
4B 4G# 4D#	4g#	.
4B 4G# 4D#	4b/	.
=59	=59	=59
4GG#	8dd#L	.
.	8cc#J	.
4B 4G# 4D#	4b	.
*Xped	*	*
4c# 4G# 4E	4g#	.
=60	=60	=60
4GG#	8d#L	.
.	8BJ	.
4B 4G# 4D#	4g#	.
4GG#	4b/)	.
=61	=61	=61
*ped	*	*
!	!LO:TX:b:i:t=sostenuto.	!
4FF#	(2.cc#	.
4e 4A#X 4F#	.	.
*Xped	*	*
4e 4A# 4F#	.	.
=62	=62	=62
*ped	*	*
4BBB	2dd#	.
4an 4d# 4B 4An	.	.
4r	8.cc#L	.
.	16dd#Jk	.
=63	=63	=63
4BB	8cc#L	.
.	8bJ	.
4a 4d# 4B 4A	4.gg#	.
*Xped	*	*
4a 4d# 4B 4A	.	.
.	8ff#	.
=64	=64	=64
*ped	*	*
<4EE	8ff#L	.
.	8ffnJ	.
4g# 4B 4G#	2ee	.
*Xped	*	*
4FF#	.	.
=65	=65	=65
*ped	*	*
4GG#	8dd#L	.
.	8cc#J	.
>4f# 4d# 4G#	4b#X	.
*Xped	*	*
4f# 4B#X 4G#	8cc#L	.
.	8dd#J	.
!!LO:LB:g=original
=66	=66	=66
4r	2g#	.
*ped	*	*
(4e 4c# 4G#	.	.
4C#)	4cc#	.
*Xped	*	*
=67	=67	=67
4r	8dd#L	.
.	8cc#J	.
[>4f# 4d# 4G#	4b#X	.
4f#] 4B#X 4G#	8cc#L	.
.	8dd#J	.
=68	=68	=68
*ped	*	*
4C#	2ff#	.
4e 4c# 4G#	.	.
4e 4c# 4G#	4ee)	.
=69	=69	=69
4r	(>4g#	.
4e 4c# 4G#	2b\	.
*Xped	*	*
4e 4c# 4G#	.	.
=70	=70	=70
4r	8a#XL	.
.	8bJ	.
(4e 4A#X 4F#	4cc#	.
4e [4B 4F#	8g#L	.
.	8a#J	.
=71	=71	=71
4e 4B] 4F#	2f#	.
4e 4c# 4F#	.	.
)4e 4G# 4F#	4b\	.
=72	=72	=72
4r	8a#XL	.
.	8bJ	.
[>4e 4A#X 4F#	4cc#	.
4e] 4B 4F#	8g#L	.
.	8a#J	.
=73	=73	=73
4r	8f#\L	.
.	8dd#\J	>
(>4e 4A#X 4F#	4cc#	.
4e 4B 4F#	8g#L	.
.	8a#XJ	.
!!LO:LB:g=original
=74	=74	=74
4e 4A#X 4F#	8f#\L	.
.	8dd#\	.
4e 4A# 4F#	8cc#\	.
.	8g#\	.
4e 4B 4F#	8a#X\	.
.	8g#\J	.
=75	=75	=75
4e 4A#X 4F#	8f#\L	.
.	8dd#\J	.
4e 4A# 4F#)	4cc#\	.
4r	4f#\	<
=76	=76	=76
*ped	*	*
4FF#	4.gg#	[
4a#X 4e	.	.
.	8ff#L	.
*Xped	*	*
4r	8ffn	.
.	8eeJ	.
=77	=77	=77
*ped	*	*
4BBB	8dd#L	.
.	8cc#J	.
4d# 4F#	4b	.
*Xped	*	*
4e 4B 4G#	4g#	]
=78	=78	=78
*ped	*	*
4BB	8f#L	.
.	8d#J	.
4B 4F#	4f#	.
*Xped	*	*
4d# 4B 4F#	4b/	.
=79	=79	=79
*ped	*	*
4BBB	8dd#L	.
.	8cc#J	.
4d# 4F#	4b	.
*Xped	*	*
4e 4B 4G#	4g#\	.
=80	=80	=80
*ped	*	*
4BB	8f#L	.
.	8d#J	.
4B 4F#	4f#	.
*Xped	*	*
4d# 4B 4F#	4b/	.
=81	=81	=81
*ped	*	*
4C#	8dd#L	.
.	8cc#J	.
4e#X 4B	4b	.
*Xped	*	*
4e# 4B	4g#	.
!!LO:LB:g=original
=82	=82	=82
*ped	*	*
4FF#	8f#L	.
.	8c#J	.
4A#X	4f#	.
*Xped	*	*
4A# 4C#	4a#X	.
=83	=83	=83
*ped	*	*
4CC#	8dd#L	.
.	8cc#J	.
4e#X 4B	4b	.
*Xped	*	*
4e# 4B	4g#	.
=84	=84	=84
*ped	*	*
4FF#	8f#L	.
.	8c#J	.
4e 4A#X	4f#	.
*Xped	*	*
4e 4F#	4a#X	.
=85	=85	=85
*ped	*	*
4BBB	8dd#L	.
.	8cc#J	.
4d# 4F#	4b	.
*Xped	*	*
4e 4B 4G#	8a#X\L	.
.	8g#\J	.
=86	=86	=86
*ped	*	*
4BB	8f#L	.
.	8d#J	.
4B 4F#	4f#	.
4d# 4B 4F#	4b/	.
=87	=87	=87
4BBB	8dd#L	.
.	8cc#J	.
!	!LO:TUP:a	!
4d# 4F#	12bL	.
.	12cc#	.
.	12bJ	.
*Xped	*	*
4e 4B 4G#	8a#X\L	.
.	8g#\J	.
=88	=88	=88
*ped	*	*
4BB	8f#L	.
.	8d#J	.
4B 4F#	4f#	.
*Xped	*	*
4d# 4B 4F#	4b/	.
=89	=89	=89
*ped	*	*
4GG#	8dd#L	f
.	8cc#J	.
4d# 4G# 4D#	4b#X/	.
4d# 4G# 4D#	4g#	.
!!LO:LB:g=original
=90	=90	=90
4GG#	8d#L	<
.	8B#XJ	.
4d# 4G# 4D#	4g#	.
4d# 4G# 4D#	4b#X/	.
=91	=91	=91
4GG# 4GGG#	8dd#L	.
.	8cc#J	.
4d# 4B#X 4G# 4D#	4.b#X	.
*clefG2	*	*
4g# 4B#X	.	.
.	8cc#	.
=92	=92	=92
4b#X 4g# 4d#	8ee#XL	.
.	8dd#Jk)	.
4r	[2gg#;	[
*Xped	*	*
4r	.	.
=93	=93	=93
2.r	(>4gg#]	.
.	8gg#L	.
.	8bb	.
.	8aa	.
.	8gg#J	.
=94	=94	=94
*	*^	*
4r	8ff##X/L	2ryy	.
.	8dd#/J	.	.
4r	4.gg#/	.	.
(>[4g#^<\	.	4b#X	.
.	8ff##	.	.
*	*v	*v	*
=95	=95	=95
4g#\]	2.ee/ [2.cc#/	.
8g#\L	.	.
8b\	.	.
8a\	.	.
8g#\J	.	.
=96	=96	=96
*^	*^	*
8f##X\L	4ryy	2.dd#	4cc#]	.
8d#\J	.	.	.	.
4.g#	4ryy	.	2b#X	.
.	4G#	.	.	.
8f#X	.	.	.	.
*v	*v	*	*	*
*	*v	*v	*
=97	=97	=97
4e\ 4c#\)	>4cc#)	.
4r	(8dd#L	.
.	8ff#	.
4r	8ee	.
.	8dd#J	.
*clefF4	*	*
!!LO:PB:g=original
=98	=98	=98
*	*^	*
4r	8cc#/L	2ryy	.
.	8a#XJ	.	.
4r	4.dd#	.	.
!diminuendolike accent:problem	!	!	!
(>[4d#^<	.	4f##X	.
.	8cc#	.	.
*	*v	*v	*
=99	=99	=99
!	!	!LO:HP:b
>4d#]	2.b [2.g#	.
8d#L	.	.
8f#	.	.
8e	.	.
8d#J	.	.
=100	=100	=100
*^	*^	*
8c#\L	2ryy	2.a#X	4g#]	.
8A#X\J	.	.	.	.
4.d#	.	.	2f##X	<
.	(>4D#	.	.	.
8c#)	.	.	.	[[
*v	*v	*	*	*
*	*v	*v	*
=101	=101	=101
*ped	*	*
4GG#/)	8b#X\L 8f#\ 8B#\)	.
.	(8cc#\	.
4r	8dd#\	.
.	8ee\	.
4r	8ff#\	.
.	8gg#\J	.
=102	=102	=102
!	!LO:TUP:a	!
4r	12aaL	>
.	12bb	.
.	12aaJ	]
>4f# 4B#X 4G#	8ff#L	.
.	8ee	.
*Xped	*	*
4f# 4c# 4A	8dd#	.
.	8cc#J	.
=103	=103	=103
*ped	*	*
4f# 4d# 4G#	>8b#XL	.
.	8cc#	.
4GG#'	8dd#	.
.	8ee	.
4f#'> 4B#X'> 4G#'>	8ff#	.
.	8gg#J	.
=104	=104	=104
!	!LO:TUP:a	!
4r	12aaL	>
.	12bb	.
.	12aaJ	]
>4f# 4B#X 4G#	8ff#L	.
.	8ee	.
*Xped	*	*
4f# 4c# 4A	8dd#	.
.	8cc#J	.
=105	=105	=105
4f# 4B#X 4G#	8dd#L	.
*ped	*	*
.	8g#J	.
4GG#'>	4.gg#	.
(>4B# 4D#	.	.
.	8dd#	.
!!LO:LB:g=original
=106	=106	=106
4f# 4G#	8gg#L	.
.	8dd#J	.
4B#X) 4D#	4.gg#	.
4GG#'<	.	.
.	8g#	.
=107	=107	=107
4GGG#'<	8dd#L	.
.	8g#J	.
4f# 4B#X 4G#	4.gg#	.
*Xped	*	*
4r	.	.
.	8g#	.
=108	=108	=108
*ped	*	*
4CC#	8dd#L	.
.	8eeJ	.
*Xped	*	*
4e: 4G#: 4C#:	4cc#)	.
4r	4r	.
=109	=109	=109
*ped	*	*
4AA\ 4AAA\	4A</	f
4.e 4.A 4.E	4.cc#^< 4.a 4.c#	.
8e 8A 8E	(>8c#	.
=110	=110	=110
8eL 8A 8E	8cc#/L 8a/)	.
16r	16r	.
16eJk 16A 16E	(>16cc#Jk 16a	.
4e 4A 4E	4c#'>)	.
!	!LO:S:s=1:note:problem:note-level slur	!
4e 4A 4E	(>4cc#^< 4a 4c#	.
=111	=111	=111
*	*^	*
4AA'<\ 4AAA'<\	8A<'>)	4ryy	.
.	16r	.	.
.	(16cc# 16a	.	.
4e 4A 4E	12cc#L	4a^<	.
.	12dd#	.	.
.	12cc#J	.	.
*Xped	*	*	*
4r	8bL 8g#	4ryy	.
.	8aJ 8f#	.	.
*	*v	*v	*
=112	=112	=112
*ped	*	*
4EE	8bL 8g#)	.
.	16r	.
.	(>16bJk 16g#	.
4B 4E	4g#'> 4e'>)	.
*Xped	*	*
!	!LO:S:s=1:note:problem:note-level slur	!
4B 4E	(>4ee^< 4g# 4e	.
=113	=113	=113
*ped	*	*
4FF#\ 4FFF#\	4A<'>/)	.
4.c# 4.F# 4.C#	4.a^< 4.f# 4.A	.
8c# 8F# 8C#	(>8A	.
!!LO:LB:g=original
=114	=114	=114
8c#L 8F# 8C#	8aL 8f#)	.
16r	16r	.
16c#Jk 16F# 16C#	(>16aJk 16f#	.
4c# 4F# 4C#	4A)	.
4c# 4F# 4C#	(>4a^< 4f# 4A	.
=115	=115	=115
*	*^	*
4FF#\ 4FFF#\	8A<'>)	4ryy	.
.	16r	.	.
.	(>16a 16f#	.	.
4c# 4F# 4C#	12aL	4f#^<	.
.	12b	.	.
.	12aJ	.	.
*Xped	*	*	*
4r	8g#L 8e	4ryy	.
.	8f#J 8d#	.	.
*	*v	*v	*
=116	=116	=116
*ped	*	*
4CC#'<	8g#L 8e)	.
.	16r	.
.	(>16g#Jk 16e	.
4G# 4C#	4e'> 4c#'>)	.
*Xped	*	*
4C#\	4cc#^< 4c#	.
=117	=117	=117
*	*^	*
*ped	*	*	*
(>8DD#L	(>2b#X 2.f##X	2.c#	p>
8D#	.	.	.
8E#X	.	.	.
*Xped	*	*	*
8F##X	.	.	.
8G#	4a#X	.	.
8A#XJ	.	.	.
*	*v	*v	*
=118	=118	=118
8B#XL	4d#)	]
8G#	.	.
8D#	4r	.
8e#XJ	.	.
4d#)	(>4b#X 4g#	.
=119	=119	=119
*	*^	*
*ped	*	*	*
(8DD#L	2dd# 2b#X	2.f##X 2.c#	>
8D#	.	.	.
8E#X	.	.	.
*Xped	*	*	*
8F##X	.	.	.
8G#	4cc# 4a#X	.	.
8A#XJ	.	.	]
*	*v	*v	*
=120	=120	=120
8B#XL	2b#X 2g# 2d#	.
8G#	.	.
8D#	.	<
8qF##/	.	.
8E#XJ	.	.
4D#	4cc# 4g# 4e#X	[
=121	=121	=121
*ped	*	*
>8DD#L	2b#X 2f##X 2d#	>
*	*	*^
!	!	!	!LO:HP:b=2
8D#	.	.	<
8E#X	.	.	.
8F##X	.	.	.
8G#	4a#X 4e#X 4c#	.	.
8A#XJ	.	]	.
!!LO:LB:g=original
=122	=122	=122	=122
8B#XL	4d#)	.	.
8G#	.	.	.
8D#	4r	.	.
8d#J	.	.	.
[4g#	<[4dd# 4b#X	.	[
*	*	*v	*v
=123	=123	=123
8g#L]	4dd#] 4cc#	.
8f##X	.	.
8D#	4r	.
8e#XJ	.	.
4d#^>	(>4dd#\ 4f##X\	.
=124	=124	=124
8c#L	4dd#\ 4g#\)	.
8B#X	.	.
8GG#	4r	.
8A#XJ	.	.
[4G#^>)	(>4dd# 4b#X 4d#	.
=125	=125	=125
4G#]	2.e 2.cc# 2.ee	<
(<8G#L	.	]
8B	.	[
8A	.	.
8G#J	.	.
=126	=126	=126
*^	*^	*
*	*	*	*^	*
8F##X/L	4ryy	8dd#L	4a#X	2.d#\	.
8D#/J	.	8cc#J	.	.	.
4.G#	4ryy	4b#X	[2g#	.	.
.	4GG#	4dd#	.	.	.
8F#X	.	.	.	.	.
=127	=127	=127	=127	=127	=127
4E	[2.GG#	8dd#L	4g#]	4c#\	.
.	.	8g#J	.	.	.
4D#	.	4g#	[>2g#	8d#\L	.
.	.	.	.	8f#\	.
8C#L	.	8cc#L	.	8e\	.
8D#J	.	<8b#XJ	.	8d#\J	.
*	*	*	*v	*v	*
=128	=128	=128	=128	=128
*	*^	*	*	*
8c#L	4E	2.GG#\]	8a#XL	4g#]	.
8A#XJ	.	.	8cc#J	.	.
4.d#	(>2D#	.	4a#	2f##X	.
.	.	.	4b#X	.	.
N(<8c#	.	.	.	.	.
*v	*v	*v	*	*	*
*	*v	*v	*
=129	=129	=129
!	!LO:TX:a:t=P:crossing-cross-staff-slur:problem	!
4GG#))	4g# 4B#XN))	.
4r	8g#\L	.
.	8bn\	.
4r	8a\	.
.	8g#\J	.
!!LO:LB:g=original
=130	=130	=130
*	*^	*
2.r	(2a#X 2cc#	8f##XL	.
.	.	8d#J	.
.	.	4.g#	.
.	4b#X 4dd#	.	.
.	.	8f#X	.
*clefG2	*	*	*
=131	=131	=131	=131
(>[>2.e\ [2.G#\)	2.gg#	<4cc#	.
.	.	8dd#L	.
.	.	8ff#	.
.	.	8ee	.
.	.	8dd#J	.
=132	=132	=132	=132
*^	*	*	*
>4e]	2.G#]	2.aa#X 2.ff##X	8cc#L	.
.	.	.	8a#XJ	.
4d#	.	.	4.dd#	.
4a#X	.	.	.	.
.	.	.	8cc#	.
*v	*v	*	*	*
*	*v	*v	*
=133	=133	=133
4d#\ 4G#\)	8bb#XL 8b#X)	fz
.	(>8cc#	.
4r	8dd#	.
.	8ee	.
4r	8ff#	.
.	8gg#J	.
*clefF4	*	*
=134	=134	=134
*	*^	*
!	!	!LO:TUP:a	!
4r	4ryy	12aaL	>
.	.	12bb	.
.	.	12aaJ	]
(4G# 4B#X 4f#	4bb#X	8ff#L	.
.	.	8ee	.
4A 4c# 4f#	4ccc#	8dd#	.
.	.	8cc#J	.
*	*v	*v	*
=135	=135	=135
*ped	*	*
4f# 4d# 4G#)	8b#XL	.
.	8ddd#	.
4GG#'<	8dd#	.
.	8ee	.
4f#' 4B#X 4G#	8ff#	.
.	8gg#J	.
=136	=136	=136
*	*^	*
!	!	!LO:TUP:a	!
4r	4ryy	12aaL	>
.	.	12bb	.
.	.	12aaJ	]
(4G# 4B#X 4f#	4bb#X	8ff#L	.
.	.	8ee	.
*Xped	*	*	*
4A 4c# 4f#	4ccc#	8dd#	.
.	.	8cc#J	.
*	*v	*v	*
!!LO:LB:g=original
=137	=137	=137
4f# 4d# 4G#)	8b#XL	.
.	8ddd#	.
4GG#'<	8dd#	.
.	8ee	.
4f#' 4B#X 4G#	8ff#	.
.	8gg#J	.
=138	=138	=138
*	*^	*
!	!	!LO:TUP:a	!
4r	4ryy	12aaL	>
.	.	12bb	.
.	.	12aaJ	]
4G# 4B#X [4f#	4bb#X	8ff#L	.
.	.	8ee	.
4A 4c# 4f#]	4ccc#	8dd#	.
.	.	8cc#J)	.
=139	=139	=139	=139
!	!	!LO:TUP:a	!
4r	4ryy	(12eeL	>
.	.	12ff#	.
.	.	12eeJ	]
4E [4c#	4gg#	8dd#L	.
.	.	8cc#	.
4E 4c#]	4aa	8b	.
.	.	8aJ)	.
=140	=140	=140	=140
!	!	!LO:TUP:a	!
4r	4ryy	(12cc#L	>
.	.	12dd#	.
.	.	12cc#J	]
4E [4A	4dd#	8bL	.
.	.	8a	.
4E [4A]	4ee	8e	.
.	.	[>8c#J)	.
*	*v	*v	*
=141	=141	=141
*^	*	*
*ped	*	*	*
4A]	[2.GG#	(>8c#]	.
.	.	4B#X	.
4G#\ 4D#\	.	.	.
.	.	8b#XL	<
[4D#\	.	8a#X	.
.	.	8b#J	.
*v	*v	*	*
=142	=142	=142
*	*	*^
4D#\] 4GG#\]	8a#XL	.	<
*	*	*v	*v
.	8g#J	.
4B#X 4D#	4.ee 4.e	[
4B# [>4D#	.	.
*Xped	*	*
.	8dd# 8d#	>
=143	=143	=143
*^	*^	*
4D#]	2.GGn	4dd# 4d#	4ryy	.
8.EL	.	4cc#)	<8.c#/L	.
16F#Jk	.	.	16d#Jk	]
[4E	.	4ryy	[<4c#/	.
=144	=144	=144	=144	=144
*	*^	*	*	*
4ryy	4E/]	2.GGn\	4c#]	4ryy	.
*	*	*	*v	*v	*
4A	8.EL	.	8.c#L	.
.	16F#Jk	.	16d#Jk	.
*	*	*	*^	*
4A	4E	.	4c#	4ryy	.
*	*v	*v	*	*	*
!!LO:PB:g=original
=145	=145	=145	=145	=145
*ped	*	*	*	*
4r	2GGn	4r	4ryy	.
!	!	!LO:N:vis=2	!	!
4E 4A	.	(8c#L	[2c#	<
.	.	8cc#	.	<
4E/ 4A/	4ryy	8b	.	.
.	.	8cc#J	.	.
*v	*v	*	*	*
=146	=146	=146	=146
4A 4E	8bL	4c#]	.
.	8aJ	.	.
4c# 4E	4.ff#\ 4.f#\	2ryy	.
*Xped	*	*	*
4c# 4E	.	.	[
.	8ee\ 8e\	.	.
=147	=147	=147	=147
*^	*	*	*
*ped	*	*	*	*
4FF#'\	4ryy	4ee\ 4e\	4ryy	>
4B#X 4A	8.F#L	4dd#)	(>8.d#/L	.
.	16G#Jk	.	16eJk	]
*Xped	*	*	*	*
4ryy	4F#	4ryy	4d# 4B#y< 4A<)	.
*v	*v	*	*	*
=148	=148	=148	=148
*ped	*	*	*
4EE'\	4r	4ryy	.
8.EL	(>8.eL	4c# 4A	>
16D#Jk	16f#Jk	.	.
*Xped	*	*	*
4E	4e)	4c# 4A	]
=149	=149	=149	=149
*ped	*	*	*
4DD#'\	4r	4ryy	.
8AL	(>8f#L	4B#X	.
8B	8g#	.	<
8.A	8.f# 8.B#	4ryy	.
16D#Jk	16dd#Jk 16d#	.	[
*	*v	*v	*
=150	=150	=150
*^	*	*
4ryy	4F#	4d# 4dd#)	[
4B#X	8.F#L 8.A	(>8.d#L	.
.	16G#Jk	16eJk	.
*Xped	*	*	*
4B#	4F# 4A	4d#)	.
*v	*v	*	*
=151	=151	=151
*	*^	*
*ped	*	*	*
4BBB#X'>	4r	4ryy	.
8AL	(8f#L	4d#	<
8Bn	8g#	.	.
8.A	8.d#L 8.f#	4ryy	.
16BB#XJk	16d#Jk 16dd#J	.	[
=152	=152	=152	=152
4F#	4d# 4dd#)	4ryy	.
8.F#L	(8.d#L	4A	.
16G#Jk	16eJk	.	.
*Xped	*	*	*
4F#	4d#)	4A	.
*	*v	*v	*
!!LO:LB:g=original
=153	=153	=153
*ped	*	*
4GGG#'<	4r	.
8AL	(>8f#L	p
8B	8g#	.
8A	8f#	.
8D#J	8B#XJ	.
=154	=154	=154
8F#L	8d#L	.
8D#J	8B#XJ	.
4.G#	4.e	.
*Xped	*	*
8F#	8d#	.
=155	=155	=155
8EL	8c#L	.
8D#	8B#X	.
8E	8c#	.
8F#	8d#	.
8A	8f#	.
8G#J	8eJ	.
!!LO:LB:g=original
=156	=156	=156
8F#L	8d#L	.
8E	8c#	.
8D#	8B#X	.
8F#	8d#	.
8E	8c#	.
8C#J	8AJ	.
=157	=157	=157
4CC#\	4e'> 4c#'> 4G#<'>)	.
(<8GG#\L	4r	.
8BB	.	.
8AA	(>[>4c#< 4E<	.
8GG#J	.	<
=158	=158	=158
*^	*	*
!	!	!ligature:problem:ligatura do 8c#	!
4ryy	4GGn	8c#] 8E#X<L	.
.	.	8dn 8B<J	.
!	!	!LO:TX:i:t= cresc&colon; _:problem	!
!	!	!	!LO:HP:b:i:t=cresc&colon;
4F#	4FF#	4.d#X	[<
4A#X 4En	4FFF#\	.	.
.	.	8c#	.
*v	*v	*	*
=159	=159	=159
*	*^	*
4BBB\)	2ryy	4B</ 4D#</	.
(<8BB\L	.	2G#</)	.
8D#	.	.	.
8C#	(>4d#	.	.
8BBJ	.	.	.
=160	=160	=160	=160
*^	*	*	*
2Gn	2BB-X	8eL	4ryy	.
.	.	8fnJ 8dn	.	.
.	.	4.f#X	2c#	.
4G	4AAn)	.	.	.
.	.	8e	.	.
*	*	*v	*v	*
!!LO:LB:g=original
=161	=161	=161	=161
8dnL 8F#	(<8DDnL	4f#	.
8BJ	8DnJ	.	.
4B-X	4D-X	4.gn	.
4e>\	4Cn	.	.
.	.	8g#X	.
*v	*v	*	*
=162	=162	=162
*	*^	*
12FnL	4a	8A<L	.
12Gn	.	.	.
.	.	8dn<J	.
12FJ	.	.	.
4E	4.a#X	4c#	.
4D#X	.	4f##X	.
.	8b	.	.
=163	=163	=163	=163
!LO:TUP:a	!	!	!
12G#L	4b#X	8B#XL	.
12A#X	.	.	.
.	.	8e#XJ	.
12G#J	.	.	.
4Gn	4.cc#	4en	.
4F#	.	4a#X	.
.	8cc##X	.	.
=164	=164	=164	=164
*	*	*^	*
!LO:TUP:a	!	!	!	!
12BL	4dd#	8d#L	4ryy	.
12c#	.	.	.	.
.	.	8g#J	.	.
12BJ	.	.	.	.
!	!	!LO:N:vis=2	!	!
4B-X	4.ee	8gn/L	2gn	.
.	.	8ccnJ	.	.
4A	.	4cc#	.	.
.	8ee#	.	.	[
*	*v	*v	*v	*
=165	=165	=165
*ped	*	*
4DDn'>)	4ff#/ 4ddn/ 4f#/)	fz
(>8DnL	4r	p
8F#	.	.
8E	(>4f# 4A	.
8DJ	.	.
*Xped	*	*
=166	=166	=166
*	*^	*
4D-X	8B-XL 8gn	4ryy	.
.	8BnJ 8fn 8g#X	.	.
!	!	!LO:TX:i:t=cresc&colon; _:problem	!
!	!	!	!LO:HP:b:i:t=cresc&colon;
4Cn\	4.a	4cn	<
4CCn	.	4B-X 4e	.
.	8gn	.	.
=167	=167	=167	=167
4FFn)	4A 4fn)	4ryy	.
(8FnL	4ryy	(>2dn	.
8A	.	.	.
8Gn	4a	.	.
8FJ	.	.	.
!!LO:LB:g=original
=168	=168	=168	=168
*	*^	*	*
2E	8a#XL	4ryy	2c#\	.
.	8bJ 8g#	.	.	.
.	4.b#X	2f##X	.	.
4D#)	.	.	4c#\	.
.	8a#	.	.	.
*	*	*v	*v	*
=169	=169	=169	=169
(>8GG#\L	4b#X	8B#XL 8g#	.
8G#J	.	8e#XJ	.
4Gn	4.cc#	4en	.
4F#	.	4a#X	.
.	8cc##X	.	.
=170	=170	=170	=170
!LO:TUP:a	!	!	!
12BL	4dd#	8d#L	.
12c#	.	.	.
.	.	8g#J	.
12BJ	.	.	.
4B-X	4.ee	4gn	.
4A	.	4cc#	.
.	8ee#X	.	.
=171	=171	=171	=171
!LO:TUP:a	!	!	!
12dnL	4ff#	8f#L	.
12e	.	.	.
.	.	8bJ	.
12dJ	.	.	.
4c#	2ggn	4b-	.
*clefG2	*	*	*
12eL	.	[4a	.
12f#	.	.	.
12eJ	.	.	.
=172	=172	=172	=172
8d#L)	8ff#L 8b# 8a/]	4ryy	.
16r	16rff	.	.
(<16eJk	16gg#Jk	.	.
4f#	2aa	4dd# 4b#	.
4f##X	.	[4cc#	[[
=173	=173	=173	=173
2.g#)	4.gg#)	2.ee^< 2.cc#]	f
!	!LO:TX:i:t=cresc&colon; _:problem	!	!
!	!	!	!LO:HP:b:i:t=cresc&colon;
.	(8ff##XL	.	<
.	8gg#	.	.
.	8aaJ	.	.
=174	=174	=174	=174
2.g# 2.f#	8gg#L	2.dd#^< 2.b#X	.
.	8ff##XJ	.	.
.	4gg#	.	.
.	4aa	.	.
=175	=175	=175	=175
2.g# 2.e	4.gg#	2.cc#^<	.
.	8ff##XL	.	.
.	8gg#	.	.
.	8aaJ	.	.
!!LO:LB:g=original
=176	=176	=176	=176
2.g# 2.d#	8gg#L	2.ff#^< 2.b#X	.
.	8ff##XJ	.	.
.	4gg#	.	.
.	4aa	.	[[
=177	=177	=177	=177
4g# 4e 4c# 4G#	4.gg#	4ee 4cc#	fz>
4r	.	2ryy	]
.	8ff##XL	.	>
4r	8gg#	.	.
.	8eeJ	.	.
*	*v	*v	*
=178	=178	=178
*	*	*^
2.r	8dd#L/	.	>
*	*	*v	*v
.	8cc#J/	.
.	4ee/	.
.	4b#X/	.
=179	=179	=179
2.r	4.dd#/	.
.	8cc#L	.
.	8e	.
.	8aJ	.
*clefF4	*	*
=180	=180	=180
4r	8g#L	.
.	8G#<J	]
4r	4e	.
(4F#\ 4GG#\	4d#	.
=181	=181	=181
*^	*	*
4E	[2.C#	[2.c#)	p
8G#L	.	.	.
8B	.	.	.
8A	.	.	.
8G#J	.	.	.
=182	=182	=182	=182
*	*	*^	*
8F#L	<2.C#]	(4d#	4c#]	.
8D#J	.	.	.	.
4.G#	.	4d#	2B#X	.
.	.	4g#	.	.
8F#)	.	.	.	.
=183	=183	=183	=183	=183
4E	[2.C#	2g#	[2.c#	.
8G#L	.	.	.	.
8B	.	.	.	.
8A	.	8f#L	.	.
8G#J	.	8eJ	.	.
!!LO:LB:g=original
=184	=184	=184	=184	=184
8F#L	2.C#]	4d#	4c#]	.
8D#J	.	.	.	.
4.G#	.	4d#	2B#X	.
.	.	4g#	.	.
8F#	.	.	.	.
*v	*v	*	*	*
=185	=185	=185	=185
*ped	*	*	*
4GG#^>\ 4CC#\	4.g#	[2.c#	pp
(8G#/L	.	.	.
8B/	8d#L	.	.
8A/	8f#	.	.
*Xped	*	*	*
8G#/J	8eJ	.	.
=186	=186	=186	=186
8F#L/	4d#	4c#]	.
8D#J/	.	.	.
4.G#/	4d#	2B#X	.
.	4g#	.	.
8F#/	.	.	.
=187	=187	=187	=187
4E/	8g#	[2.c#	.
.	4.cc#	.	.
8G#/L	.	.	.
8B/	.	.	.
8A/	(<8cc#L	.	.
8G#/J	8eJ)	.	.
=188	=188	=188	=188
8F#/L	4d#	4c#]	.
8D#/J	.	.	.
4.G#/	4d#	2B#X	.
.	4e	.	.
(>8G#/)	.	.	.
*	*v	*v	*
=189	=189	=189
*ped	*	*
4GG#'>/ 4CC#'>/)	8c#L	.
.	8g#J	>
4r	4.cc#/	.
4r	.	.
.	8c#	.
=190	=190	=190
2.r	8cc#L	.
.	8g#J	.
.	4.cc#/	.
.	8c#	.
=191	=191	=191
4r	8g#L	.
.	8c#J	.
4r	4cc#/)	.
*Xped	*	*
8r	8r	.
16r	16r	]
16GG#\ 16GGG#\	16g#'> 16G#<'>	.
=192	=192	=192
4GG#\ 4GGG#\	4g#'> 4G#<'>	ff
4C#\ 4CC#\	4c#'>	.
4r	4r	.
==	==	==
*-	*-	*-
!!title: @{OTL}; @{OPS} @{ONM} publisher: @{PPR}
!!!RDF**kern: > = above
!!!RDF**kern: < = below
!!!RDF**kern: N = linked
!!!RDF**dynam: > = dimin:
!!!RDF**dynam: < = cresc:
!!!ENC: Emilia Ziętek
!!!END: 2018-06-18
!!!EED: Jędrzej Mróz
!!!EST: 2018-06-19
!!!EED2: Jacek Iwaszko
!!!EST2: revision finished 2018-11-06
!!!EED3: Emilia Ziętek
!!!EST3: revision finished 2019-22-05
!!!rism-genre: Mazurka
!!!rism-key: C-sharp minor
!!!rism-opus: op.  50, no. 3
!!!rism-title: Mazurka in C-sharp minor op.  50, no. 3
!!!rism-permalink: https://opac.rism.info/search?id=1001029904&View=rism
!!!rism-773a-OPR: 1001029901
!!!rism-parent-permalink: https://opac.rism.info/search?id=1001029901&View=rism
